symbols/web/assured_workload/materialsymbolsrounded/assured_workload_wght200grad200_48px.svg

<svg xmlns="http://www.w3.org/2000/svg" height="48" width="48"><path d="M13.35 35.1q-.5 0-.8-.325-.3-.325-.3-.775V19.2q0-.4.325-.725.325-.325.775-.325t.775.325q.325.325.325.725V34q0 .45-.325.775t-.775.325Zm10.7 0q-.45 0-.775-.325T22.95 34V19.2q0-.4.325-.725.325-.325.825-.325.45 0 .75.325t.3.725V34q0 .45-.325.775t-.775.325ZM6.95 14.6q-.4 0-.7-.3-.3-.3-.3-.7 0-.3.275-.7.275-.4.425-.55l16.3-8.45.5-.125q.3-.075.55-.075.25 0 .55.075l.5.125 16.3 8.45q.15.15.425.55t.275.65q0 .45-.3.75t-.65.3Zm4.45-2.2h25.3L24 5.9ZM7.05 40.85q-.5 0-.8-.325-.3-.325-.3-.825 0-.4.3-.725.3-.325.8-.325h21.4q-.05.55.05 1.15.1.6.2 1.05ZM33.55 28v-8.8q0-.4.325-.725.325-.325.825-.325.2 0 .4.075t.4.175V27ZM40 48.7q-3.5-.85-5.725-3.925Q32.05 41.7 32.05 37.85V33.8q0-.5.275-.9t.725-.6l6.3-3.15q.3-.1.65-.1.35 0 .75.1l6.3 3.15q.35.2.625.6.275.4.275.9v4.05q0 3.85-2.225 6.925Q43.5 47.85 40 48.7Zm5.3-13.15q.1-.15.125-.425.025-.275-.125-.475-.2-.2-.475-.225-.275-.025-.375.225l-5.9 5.9-2.7-2.75q-.2-.15-.45-.175-.25-.025-.4.125-.25.2-.25.45t.25.45l2.4 2.4q.2.3.5.425t.7.125q.3 0 .625-.125t.525-.375ZM11.4 12.4H36.7Z"/></svg>

<svg xmlns="http://www.w3.org/2000/svg" height="48" width="48"><path d="M13.35 35.1Q12.85 35.1 12.55 34.775Q12.25 34.45 12.25 34V19.2Q12.25 18.8 12.575 18.475Q12.9 18.15 13.35 18.15Q13.8 18.15 14.125 18.475Q14.45 18.8 14.45 19.2V34Q14.45 34.45 14.125 34.775Q13.8 35.1 13.35 35.1ZM24.05 35.1Q23.6 35.1 23.275 34.775Q22.95 34.45 22.95 34V19.2Q22.95 18.8 23.275 18.475Q23.6 18.15 24.1 18.15Q24.55 18.15 24.85 18.475Q25.15 18.8 25.15 19.2V34Q25.15 34.45 24.825 34.775Q24.5 35.1 24.05 35.1ZM6.95 14.6Q6.55 14.6 6.25 14.3Q5.95 14 5.95 13.6Q5.95 13.3 6.225 12.9Q6.5 12.5 6.65 12.35L22.95 3.9Q23.15 3.85 23.45 3.775Q23.75 3.7 24 3.7Q24.25 3.7 24.55 3.775Q24.85 3.85 25.05 3.9L41.35 12.35Q41.5 12.5 41.775 12.9Q42.05 13.3 42.05 13.55Q42.05 14 41.75 14.3Q41.45 14.6 41.1 14.6ZM11.4 12.4H36.7L24 5.9ZM7.05 40.85Q6.55 40.85 6.25 40.525Q5.95 40.2 5.95 39.7Q5.95 39.3 6.25 38.975Q6.55 38.65 7.05 38.65H28.45Q28.4 39.2 28.5 39.8Q28.6 40.4 28.7 40.85ZM33.55 28V19.2Q33.55 18.8 33.875 18.475Q34.2 18.15 34.7 18.15Q34.9 18.15 35.1 18.225Q35.3 18.3 35.5 18.4V27ZM40 48.7Q36.5 47.85 34.275 44.775Q32.05 41.7 32.05 37.85V33.8Q32.05 33.3 32.325 32.9Q32.6 32.5 33.05 32.3L39.35 29.15Q39.65 29.05 40 29.05Q40.35 29.05 40.75 29.15L47.05 32.3Q47.4 32.5 47.675 32.9Q47.95 33.3 47.95 33.8V37.85Q47.95 41.7 45.725 44.775Q43.5 47.85 40 48.7ZM45.3 35.55Q45.4 35.4 45.425 35.125Q45.45 34.85 45.3 34.65Q45.1 34.45 44.825 34.425Q44.55 34.4 44.45 34.65L38.55 40.55L35.85 37.8Q35.65 37.65 35.4 37.625Q35.15 37.6 35 37.75Q34.75 37.95 34.75 38.2Q34.75 38.45 35 38.65L37.4 41.05Q37.6 41.35 37.9 41.475Q38.2 41.6 38.6 41.6Q38.9 41.6 39.225 41.475Q39.55 41.35 39.75 41.1ZM11.4 12.4H24H36.7Z"/></svg>
